svg/emoji_u1fac2.svg

<?xml version="1.0" encoding="UTF-8" standalone="no"?>
<!DOCTYPE svg PUBLIC "-//W3C//DTD SVG 1.1//EN" "http://www.w3.org/Graphics/SVG/1.1/DTD/svg11.dtd">
<svg width="100%" height="100%" viewBox="0 0 128 128" version="1.1" xmlns="http://www.w3.org/2000/svg" xmlns:xlink="http://www.w3.org/1999/xlink" xml:space="preserve" xmlns:serif="http://www.serif.com/" style="fill-rule:evenodd;clip-rule:evenodd;stroke-linejoin:round;stroke-miterlimit:2;">
    <g>
        <g>
            <path d="M82.58,5.72C71.99,5.01 54.73,15.59 58.95,40.62C61.56,56.09 71.57,63.74 78.63,64.22C85.69,64.7 96.64,58.46 101.31,43.48C108.85,19.25 93.17,6.43 82.58,5.72Z" style="fill:rgb(252,194,27);fill-rule:nonzero;"/>
        </g>
        <g>
            <path d="M117.94,83.27C113.79,66.66 101.1,57.31 87.36,55.61C81.88,54.93 76.32,54.69 70.88,55.62C69.61,55.84 68.18,56.44 66.91,56.48C65.93,56.51 34.65,44.47 33.34,44.02C29.68,42.73 22.17,43 19.17,51C15.24,61.47 31.17,69 54.17,87L53.23,124L113.282,124C117.094,124 120.187,120.912 120.192,117.099C120.281,107.952 120.112,91.96 117.94,83.27Z" style="fill:rgb(252,194,27);fill-rule:nonzero;"/>
        </g>
        <path d="M89.17,70C86.17,65 79.42,68.89 77.17,71C61.17,86 57.47,88.19 54.21,86.43C53.22,85.9 51.27,84.52 45.99,80.44C40.71,76.36 22.17,62 22.17,62C7.763,74.006 7.475,106.512 7.935,119.011C8.06,121.8 10.358,123.997 13.15,123.997C24.841,124 53.23,124 53.23,124C53.23,124 53.222,116.19 55.799,113.095C59.17,109.046 63.274,105.392 67.404,102.352C75.014,96.732 81.18,94.3 86.16,86C89.17,81 92.17,75 89.17,70Z" style="fill:rgb(237,108,48);fill-rule:nonzero;"/>
        <path d="M39.45,7.91C29.65,11.99 18.92,29.17 33.87,49.69C43.1,62.37 55.48,64.75 62.01,62.03C68.54,59.31 75.56,48.84 73.06,33.36C69,8.3 49.25,3.83 39.45,7.91Z" style="fill:rgb(237,108,48);fill-rule:nonzero;"/>
        <path d="M103.75,60.18C103.75,60.18 93.18,67 89.18,60C85.6,53.74 96.28,47.25 96.28,47.25C99.39,45.46 103.51,45.69 105.84,49.78C108.63,54.67 106.86,58.39 103.75,60.18Z" style="fill:rgb(237,108,48);fill-rule:nonzero;"/>
    </g>
</svg>

<?xml version="1.0" encoding="utf-8"?>
<!-- Generator: Adobe Illustrator 24.0.3, SVG Export Plug-In . SVG Version: 6.00 Build 0)  -->
<svg version="1.1" id="Layer_2" xmlns="http://www.w3.org/2000/svg" xmlns:xlink="http://www.w3.org/1999/xlink" x="0" y="0"
	 viewBox="0 0 128 128" style="enable-background:new 0 0 128 128;" xml:space="preserve">
<g>
	<g>
		
			<radialGradient id="SVGID_1_" cx="71.3534" cy="54.7609" r="41.0418" gradientTransform="matrix(0.9977 0.0674 -0.0674 0.9977 6.4199 -16.6873)" gradientUnits="userSpaceOnUse">
			<stop  offset="0.4702" style="stop-color:#42A5F5"/>
			<stop  offset="1" style="stop-color:#FCE8B2"/>
		</radialGradient>
		<path style="fill:url(#SVGID_1_);" d="M82.58,5.72c-10.59-0.71-27.85,9.87-23.63,34.9c2.61,15.47,12.62,23.12,19.68,23.6
			s18.01-5.76,22.68-20.74C108.85,19.25,93.17,6.43,82.58,5.72z"/>
	</g>
	<g>
		<linearGradient id="SVGID_2_" gradientUnits="userSpaceOnUse" x1="75.6012" y1="30.5276" x2="66.5725" y2="114.1042">
			<stop  offset="0.1283" style="stop-color:#FCE8B2"/>
			<stop  offset="0.6399" style="stop-color:#42A5F5"/>
		</linearGradient>
		<path style="fill:url(#SVGID_2_);" d="M117.94,83.27c-4.15-16.61-16.84-25.96-30.58-27.66c-5.48-0.68-11.04-0.92-16.48,0.01
			c-1.27,0.22-2.7,0.82-3.97,0.86c-0.98,0.03-32.26-12.01-33.57-12.46C29.68,42.73,22.17,43,19.17,51c-3.93,10.47,12,18,35,36
			l-0.94,37h66.79C120.02,124,121.1,95.91,117.94,83.27z"/>
	</g>
	<linearGradient id="SVGID_3_" gradientUnits="userSpaceOnUse" x1="28.1088" y1="135.2955" x2="63.8296" y2="46.5515">
		<stop  offset="0" style="stop-color:#0D47A1"/>
		<stop  offset="0.6795" style="stop-color:#1976D2"/>
	</linearGradient>
	<path style="fill:url(#SVGID_3_);" d="M89.17,70c-3-5-9.75-1.11-12,1c-16,15-19.7,17.19-22.96,15.43
		c-0.99-0.53-2.94-1.91-8.22-5.99S22.17,62,22.17,62c-18,15-13.96,62-13.96,62h45.02l0.81-14.92c5.68,0.91,9.99-1.04,14.12-4.08
		c7.61-5.62,13.02-10.7,18-19C89.17,81,92.17,75,89.17,70z"/>
	
		<radialGradient id="SVGID_4_" cx="45.6283" cy="49.2045" r="46.5854" gradientTransform="matrix(0.923 -0.3847 0.3847 0.923 -14.1241 20.4323)" gradientUnits="userSpaceOnUse">
		<stop  offset="0.5269" style="stop-color:#1565C0"/>
		<stop  offset="1" style="stop-color:#FADA80"/>
	</radialGradient>
	<path style="fill:url(#SVGID_4_);" d="M39.45,7.91c-9.8,4.08-20.53,21.26-5.58,41.78c9.23,12.68,21.61,15.06,28.14,12.34
		c6.53-2.72,13.55-13.19,11.05-28.67C69,8.3,49.25,3.83,39.45,7.91z"/>
	<path style="fill:#1976D2;" d="M103.75,60.18c0,0-10.57,6.82-14.57-0.18c-3.58-6.26,7.1-12.75,7.1-12.75
		c3.11-1.79,7.23-1.56,9.56,2.53C108.63,54.67,106.86,58.39,103.75,60.18z"/>
</g>
</svg>
